X: 120
T: No_206_The_White_Sun-Lady.krn
N: Derived from No_206_The_White_Sun-Lady.krn
%%abc-version 2.0
%%abcx-abcm2ps-target-version 5.9.1 (29 Sep 2008)
%%abc-creator hum2abc beta
%%abcx-conversion-date 2019/03/15 08:38:45
%%humdrum-veritas 3685174969
%%humdrum-veritas-data 2849686483
%%linebreak <none>
%%barnumbers 0
L: 1/8
M: 2/4
K: Eb clef=bass
[K:clef=bass][M:2/4]z7/A/ | 
F4 | 
F4- ||  
[M:3/4]F3F EC/C/ | 
E4C2 | 
B,4z3/ A/ ||  
[M:2/4]G4- | 
G3/E/ !fermata!F3/E/ ||  
[M:3/4]F4E3/C/ ||  
[M:2/4]E4- | 
E3/E/C2 ||  
[M:3/4]B,4z3/ A/ ||  
[M:2/4]F4 | 
F4- | 
F3/F/ EC | 
E4- | 
E3/E/C2 | 
B,4 ||  
 [K:Bb] [M:3/8]z2G | 
[M:2/4](3GCA G3/F/ ||  
[M:3/4]G4F3/D/ ||  
[M:2/4]F4- | 
F3/F/D2 | 
C4 | 
(F7/C/) | 
z2C2 ]|:  
[M:3/4]F4-FG/F/ ||  
[M:2/4]F3/E/ CC | 
z2C2 ||  
[M:3/4]E4-EF/E/ ||  
[M:2/4]E3/C/ A,A,/ z/ | 
z2A,2 ||  
[M:3/4]C4CD/C/ | 
C3/C/C2z2 | 
[M:2/4]C2A,2 | 
C2A,2 ||  
[M:3/4]C3/C/C2C2 ||  
[M:2/4]C2A, z ||  
[M:3/4]C2C z C3/D/ | 
C2C3/C/C2 :|]  



